icons/default/BookmarkSaved.svg

<path fillRule="evenodd" clipRule="evenodd"
	d="M7.85713 1.04761H17.1428C19.2468 1.04761 20.9524 2.75319 20.9524 4.85713V20.2119C20.9524 21.2639 20.0996 22.1167 19.0476 22.1167C18.615 22.1167 18.1954 21.9694 17.8576 21.6992L12.5 17.4125L7.14236 21.6992C6.32095 22.3564 5.12229 22.2233 4.46508 21.4019C4.19484 21.0641 4.04761 20.6445 4.04761 20.2119V4.85713C4.04761 2.75319 5.75319 1.04761 7.85713 1.04761Z"
	fill="url(#paint0_linear)" />
<path
	d="M20.9524 20.2119L20.4524 20.2119L20.9524 20.2119ZM19.0476 22.1167L19.0476 22.6167L19.0476 22.1167ZM17.8576 21.6992L18.17 21.3088L18.17 21.3088L17.8576 21.6992ZM12.5 17.4125L12.8124 17.0221L12.5 16.7722L12.1876 17.0221L12.5 17.4125ZM7.14236 21.6992L7.45473 22.0896L7.14236 21.6992ZM4.46508 21.4019L4.85549 21.0895L4.85549 21.0895L4.46508 21.4019ZM7.85713 1.54761H17.1428V0.547607H7.85713V1.54761ZM17.1428 1.54761C18.9706 1.54761 20.4524 3.02933 20.4524 4.85713H21.4524C21.4524 2.47705 19.5229 0.547607 17.1428 0.547607V1.54761ZM20.4524 4.85713V20.2119H21.4524V4.85713H20.4524ZM20.4524 20.2119C20.4524 20.9877 19.8234 21.6167 19.0476 21.6167L19.0476 22.6167C20.3757 22.6167 21.4524 21.54 21.4524 20.2119L20.4524 20.2119ZM19.0476 21.6167C18.7286 21.6167 18.4191 21.5081 18.17 21.3088L17.5452 22.0896C17.9717 22.4308 18.5015 22.6167 19.0476 22.6167V21.6167ZM18.17 21.3088L12.8124 17.0221L12.1876 17.8029L17.5452 22.0896L18.17 21.3088ZM12.1876 17.0221L6.82999 21.3088L7.45473 22.0896L12.8124 17.8029L12.1876 17.0221ZM6.82999 21.3088C6.2242 21.7935 5.34019 21.6953 4.85549 21.0895L4.07466 21.7143C4.90439 22.7513 6.4177 22.9193 7.45473 22.0896L6.82999 21.3088ZM4.85549 21.0895C4.65619 20.8404 4.54761 20.5309 4.54761 20.2119H3.54761C3.54761 20.758 3.73349 21.2879 4.07466 21.7143L4.85549 21.0895ZM4.54761 20.2119V4.85713H3.54761V20.2119H4.54761ZM4.54761 4.85713C4.54761 3.02933 6.02933 1.54761 7.85713 1.54761V0.547607C5.47705 0.547607 3.54761 2.47705 3.54761 4.85713H4.54761Z"
	fill="black" />
<defs>
	<linearGradient id="paint0_linear" x1="12.5" y1="1.04761" x2="12.5" y2="22.1167" gradientUnits="userSpaceOnUse">
		<stop stopColor="#FEAB8B" />
		<stop offset="0.28125" stopColor="#FFBD9E" />
		<stop offset="0.666667" stopColor="#FEDAA0" />
		<stop offset="1" stopColor="#FFDBA2" />
	</linearGradient>
</defs>

<path d="M7.857 1.048h9.286a3.81 3.81 0 0 1 3.81 3.81v15.354a1.905 1.905 0 0 1-3.095 1.487L12.5 17.412 7.142 21.7a1.905 1.905 0 0 1-3.094-1.487V4.857a3.81 3.81 0 0 1 3.81-3.81Z" fill="url(#a)"/><path d="M20.952 20.212h-.5.5Zm-1.904 1.905v.5-.5Zm-1.19-.418.312-.39-.312.39ZM12.5 17.412l.312-.39-.312-.25-.312.25.312.39ZM7.142 21.7l.313.39-.313-.39Zm-2.677-.297.39-.313-.39.313ZM7.857 1.548h9.286v-1H7.857v1Zm9.286 0a3.31 3.31 0 0 1 3.31 3.31h1a4.31 4.31 0 0 0-4.31-4.31v1Zm3.31 3.31v15.354h1V4.857h-1Zm0 15.354c0 .776-.63 1.405-1.405 1.405v1a2.405 2.405 0 0 0 2.404-2.405h-1Zm-1.405 1.405c-.32 0-.629-.109-.878-.308l-.625.78c.427.342.956.528 1.503.528v-1Zm-.878-.308-5.358-4.287-.624.78 5.357 4.288.625-.781Zm-5.982-4.287L6.83 21.31l.625.78 5.357-4.286-.624-.78ZM6.83 21.31a1.405 1.405 0 0 1-1.975-.22l-.78.625a2.405 2.405 0 0 0 3.38.376l-.625-.781Zm-1.975-.22c-.199-.249-.307-.558-.307-.877h-1c0 .546.185 1.076.527 1.502l.78-.624Zm-.307-.877V4.857h-1v15.355h1Zm0-15.355a3.31 3.31 0 0 1 3.31-3.31v-1a4.31 4.31 0 0 0-4.31 4.31h1Z"/><defs><linearGradient id="a" x1="12.5" y1="1.048" x2="12.5" y2="22.117" gradientUnits="userSpaceOnUse"><stop/><stop offset=".281"/><stop offset=".667"/><stop offset="1"/></linearGradient></defs>
